svgs/sharp-light/outdent.svg

<svg xmlns="http://www.w3.org/2000/svg" viewBox="0 0 448 512"><!--! Font Awesome Pro 6.6.0 by @fontawesome - https://fontawesome.com License - https://fontawesome.com/license (Commercial License) Copyright 2024 Fonticons, Inc. --><path d="M0 48L0 80l16 0 416 0 16 0 0-32-16 0L16 48 0 48zM192 176l0 32 16 0 224 0 16 0 0-32-16 0-224 0-16 0zm16 128l-16 0 0 32 16 0 224 0 16 0 0-32-16 0-224 0zM0 432l0 32 16 0 416 0 16 0 0-32-16 0L16 432 0 432zM27.3 236.3L0 256l27.3 19.7L112 336.9 144 360l0-39.5 0-129.1 0-39.5-32 23.1L27.3 236.3zM112 214.6l0 82.8L54.7 256 112 214.6z"/></svg>

<svg xmlns="http://www.w3.org/2000/svg" viewBox="0 0 448 512"><!--! Font Awesome Pro 6.4.0 by @fontawesome - https://fontawesome.com License - https://fontawesome.com/license (Commercial License) Copyright 2023 Fonticons, Inc. --><path d="M0 48V80H16 432h16V48H432 16 0zM192 176v32h16H432h16V176H432 208 192zm16 128H192v32h16H432h16V304H432 208zM0 432v32H16 432h16V432H432 16 0zM27.3 236.3L0 256l27.3 19.7L112 336.9 144 360V320.5 191.5 152l-32 23.1L27.3 236.3zM112 214.6v82.8L54.7 256 112 214.6z"/></svg>
